X: 7
T: Battering Ram, The
Z: Thomas Foschini
S: https://thesession.org/tunes/382#setting41119
R: jig
M: 6/8
L: 1/8
K: Dmaj
|:B|dBG BAB|dBG G2g|dBG AGE|GED D2B|
dBG BAG|B/c/dB BAG|A3 BAB|GED D2:|
|:B|deg aga|bge edB|deg aga|bge ega|
bag age|ged e/f/ge|dBG ABA|GED D2:|
|:d|B2G A2G|B2D D2d|BAG AGE|GED D2d|
B2GA2G|B/c/dB BAG|AGA BAB|GED D2:|

